X:1
T:Praise and Magnify Our King
T:Praise and Magnify Our King
T:John Robson Sweney
T:Frances Jane (Fanny) Crosby, 1882
T:Public Domain Courtesy of the Cyber Hymnal™
T:Public Domain Courtesy of the Cyber Hymnal™
C:John Robson Sweney
Z:Public Domain
Z:Courtesy of the Cyber Hymnal™
%%score ( 1 2 ) ( 3 4 )
L:1/8
Q:1/4=97
M:4/4
K:C
V:1 treble 
V:2 treble 
V:3 bass 
V:4 bass 
V:1
 C2 E>F G3 G | AGAB c4 | [Gd]2 [Gd]>[Gc] [GB]4 | [Ge]2 [Ge]>[Fd] [Ec]4 | C2 E>F G3 G | ABcd e3 z | %6
w: 1.~Great is the Lord, who|rul- eth o- ver all!|Wake, wake and sing,|wake, wake and sing;|Down at His feet in|a- do- ra- tion fall.|
w: 2.~Great is the Lord, who|spake and it was done;|Wake, wake and sing,|wake, wake and sing;|Hon- or and strength, do-|min- ion He has won,|
w: 3.~Great is the Lord: oh,|come with ho- ly mirth;|Wake, wake and sing,|wake, wake and sing;|Come and re- joice, ye|na- tions of the earth,|
w: 4.~Great is the Lord, and|ho- ly is His name!|Wake, wake and sing,|wake, wake and sing;|An- gels and men, His|won- drous works pro- claim,|
 [Ad]3 [Ac] [Gc][GB][FA][FB] | [Ec]6 z2 ||"^Refrain" [EG]2 [CE]>[DF] [EG][Ge] [Ec]2 | %9
w: Praise and mag- ni- fy our|king.||
w: Praise and mag- ni- fy our|king.||
w: Praise and mag- ni- fy our|king.||
w: Praise and mag- ni- fy our|king.||
 [EG]2 [CE]>[DF] [EG][Ge] [Ed]2 | [Gd]3 [Gc] [Gc][GB] [GB]2 | [Ge]3 [Fd] [Fd][Ec] [Ec]2 | %12
w: |||
w: |||
w: |||
w: |||
 [EG]2 [CE]>[DF] [EG][Ge] [Ec]2 | [EG]2 [CE]>[DF] [EG][Ge] [Ec]2 | [Fd]3 [Fc] [Ec][DB][FA][FB] | %15
w: |||
w: |||
w: |||
w: |||
 [Ec]6 z2 |] %16
w: |
w: |
w: |
w: |
V:2
 C2 E>F G3 G | AGAB c4 | x8 | x8 | C2 E>F G3 G | ABcd e3 x | x8 | x8 || x8 | x8 | x8 | x8 | x8 | %13
 x8 | x8 | x8 |] %16
V:3
 C,2 E,>F, G,3 G, | A,G,A,B, C4 | [G,B,]2 [G,F]>[G,E] [G,D]4 | [C,C]2 [C,C]>[C,G,] [C,G,]4 | %4
w: ~ ~ ~ ~ ~|~ ~ ~ ~ ~|~ ~ ~ ~|~ ~ ~ ~|
 C,2 E,>F, G,3 G, | A,B,CD E3 z | [F,F]3 [F,F] [G,E][G,D][G,,C][G,,G,] | [C,G,]6 z2 || %8
w: ~ ~ ~ ~ ~|~ ~ ~ ~ ~|~ ~ ~ ~ ~ ~|~|
 [C,C]2 [C,G,]>[C,G,] [C,C][C,C] [C,G,]2 | [C,C]2 [C,G,]>[C,G,] [C,C][C,C] [C,G,]2 | %10
w: O ye re- deemed a- bove,|Strike, strike your harps of love;|
 [G,F]3 E E[G,D] [G,D]2 | [C,C]3 [C,G,] [C,G,][C,G,] [C,G,]2 | %12
w: Hail the Bless- èd One,|Hail the Might- y One.|
 [C,C]2 [C,G,]>[C,G,] [C,C][C,C] [C,G,]2 | [C,C]2 [C,G,]>[C,G,] [C,C][C,C] [C,G,]2 | %14
w: Sweet- ly His won- ders tell,|Loud- ly His glo- ry swell,|
 [F,A,]3 [F,A,] G,G,[G,,G,][G,,G,] | [C,G,]6 z2 |] %16
w: Praise and mag- ni- fy our|king.|
V:4
 C,2 E,>F, G,3 G, | A,G,A,B, C4 | x8 | x8 | C,2 E,>F, G,3 G, | A,B,CD E3 x | x8 | x8 || x8 | x8 | %10
 x8 | x8 | x8 | x8 | x4 G,G, x2 | x8 |] %16

